X:53
T:The Wedding of Lachlan McGraw
S:Joe Yates, collected by John Meredith
A:Sofala,New South Wales, Australia
Z:Transcribed into ABC by John Furlonger
M:6/8
L:1/8
K:Em
|:B2 B E>FG|B2 B E>FG|A2 A A>AA|A>GF E>FG|!
B>BB B>BB|B>AG F>GA|B>cB BAB|1 GEE E3:|2 GEE E2 B||!
E>ee e^de|f2 e ed^c|d2 B B>AB|d2 B Bcd|!
e2 e e^de|f2 e ed^c|d2 B B>AB|GEE E2 B|!
EEE G2 F|FDD D2 F|EEE ee2 d|d>BB B2 g|!
d>dd edc|cBA G2 A|B>BB BAB|G>FG E3||
